X: 585
T: The black haired lass
C: anon.
O: Ireland
B: Francis O'Neill: "The Dance Music of Ireland" (1907) no. 585
R: Reel
Z: Transcribed by Frank Nordberg - http://www.musicaviva.com
F: http://www.musicaviva.com/abc/tunes/ireland/oneill-1001/oneill-1001-058
5.abc
M: C|
L: 1/8
K: Amix
(ed)|c2AB cdec|d2gd BGGB|({d}c)BAB cdec|dfec Aced|({d}c)BAB cdec|d2fd BGG
B|({d}c)BAB cdec|dfecA2||
(AB)|cdef ({a}g2)eg|fddf ({a}g)fed|cdef ({a}g)feg|fdec A2(AB)|cdef ({a}g)
feg|fddf e2fg|af({a}g)e fdec|dfecA2|]
W:
W:
W: From Musica Viva - http://www.musicaviva.com
W: the Internet center for free sheet music downloads.


